apps/ledger-live-desktop/src/renderer/images/lending-illu-3.svg

<svg width="43" height="67" viewBox="0 0 43 67" fill="none" xmlns="http://www.w3.org/2000/svg">
<rect y="21.4999" width="43" height="44.6538" fill="url(#paint0_linear)" fill-opacity="0.3"/>
<path d="M0 21.5C0 9.62588 9.62588 0 21.5 0C33.3741 0 43 9.62588 43 21.5C43 33.3741 33.3741 43 21.5 43C9.62588 43 0 33.3741 0 21.5Z" fill="#00A478"/>
<path d="M23.0165 17.4715V15.48H28.2444V12.4473H14.7559V15.48H19.9838V17.4715C16.0346 17.6186 12.4475 18.3485 12.4475 19.6102C12.4475 20.8719 16.0346 21.6018 19.9838 21.7546V30.5526H23.0165V21.7546C26.977 21.6018 30.5528 20.8776 30.5528 19.6102C30.5528 18.3429 26.9657 17.6186 23.0165 17.4715ZM23.3842 21.2736H23.1975H22.9995C22.4959 21.2736 21.9924 21.3076 21.4832 21.3076C20.974 21.3076 20.4704 21.3076 19.9669 21.3076L19.1351 21.268H18.9258C15.1576 20.9794 12.9058 20.2043 12.9058 19.6102C12.9058 19.0161 15.565 18.0996 19.9838 17.9129V20.2382C20.4704 20.2382 20.9683 20.2722 21.5001 20.2722C22.032 20.2722 22.5299 20.2722 23.0165 20.2722V17.9355C27.4353 18.0996 30.0945 18.9709 30.0945 19.6329C30.0945 20.2948 27.5767 21.0756 23.3842 21.2736Z" fill="white"/>
<defs>
<linearGradient id="paint0_linear" x1="21.5" y1="21.4999" x2="21.5" y2="66.1538" gradientUnits="userSpaceOnUse">
<stop stop-color="#00A478"/>
<stop offset="1" stop-color="#00A478" stop-opacity="0"/>
</linearGradient>
</defs>
</svg>

<svg xmlns="http://www.w3.org/2000/svg" width="43" height="67" fill="none" viewBox="0 0 43 67"><path fill="url(#a)" fill-opacity=".3" d="M0 21.5h43v44.654H0z"/><path fill="#00a478" d="M0 21.5C0 9.626 9.626 0 21.5 0S43 9.626 43 21.5 33.374 43 21.5 43 0 33.374 0 21.5"/><path fill="#fff" d="M23.017 17.472V15.48h5.227v-3.033H14.756v3.033h5.228v1.991c-3.95.148-7.537.878-7.537 2.14 0 1.26 3.588 1.99 7.537 2.144v8.798h3.032v-8.798c3.961-.153 7.537-.877 7.537-2.145 0-1.267-3.587-1.991-7.536-2.139m.367 3.802H23c-.504 0-1.008.034-1.517.034h-1.516l-.832-.04h-.21c-3.767-.289-6.02-1.064-6.02-1.658s2.66-1.51 7.079-1.697v2.325c.486 0 .984.034 1.516.034h1.517v-2.336c4.418.164 7.078 1.035 7.078 1.697s-2.518 1.443-6.71 1.64"/><defs><linearGradient id="a" x1="21.5" x2="21.5" y1="21.5" y2="66.154" gradientUnits="userSpaceOnUse"><stop stop-color="#00a478"/><stop offset="1" stop-color="#00a478" stop-opacity="0"/></linearGradient></defs></svg>
